lib/svgs/wave.svg

<?xml version="1.0" encoding="UTF-8"?>
<svg width="16px" height="16px" viewBox="0 0 16 16" version="1.1" xmlns="http://www.w3.org/2000/svg" xmlns:xlink="http://www.w3.org/1999/xlink">
    <!-- Generator: sketchtool 51.3 (57544) - http://www.bohemiancoding.com/sketch -->
    <title>wave</title>
    <desc>Created with sketchtool.</desc>
    <defs></defs>
    <g id="Icons" stroke="none" stroke-width="1" fill="none" fill-rule="evenodd">
        <g id="Deprecated" transform="translate(-282.000000, -300.000000)" fill="#000000" fill-rule="nonzero">
            <g id="wave" transform="translate(282.000000, 300.000000)">
                <path d="M6.39046561,0.938958393 C6.19810435,0.341458258 5.34999508,0.358262276 5.18128588,0.962916483 L3.09991975,8.42253807 L0.631578947,8.42253807 C0.282767526,8.42253807 0,8.70630114 0,9.05634063 C0,9.40638012 0.282767526,9.69014319 0.631578947,9.69014319 L3.57894737,9.69014319 C3.8621743,9.69014319 4.11076871,9.50093035 4.18713517,9.22723277 L5.83267551,3.32961196 L9.60953439,15.0610477 C9.79795817,15.6463174 10.6230945,15.6463174 10.8115182,15.0610477 L12.8807267,8.63380559 L15.3684211,8.63380559 C15.7172325,8.63380559 16,8.35004252 16,8.00000303 C16,7.64996354 15.7172325,7.36620047 15.3684211,7.36620047 L12.4210526,7.36620047 C12.1470478,7.36620047 11.9042981,7.54349993 11.8200607,7.8051528 L10.2105263,12.8045848 L6.39046561,0.938958393 Z" id="icon-wave"></path>
            </g>
        </g>
    </g>
</svg>

<svg xmlns="http://www.w3.org/2000/svg" viewBox="0 0 16 16">
    <path d="M6.39.939a.63.63 0 0 0-1.209.024L3.1 8.423H.632a.633.633 0 0 0 0 1.267h2.947c.283 0 .532-.19.608-.463L5.833 3.33 9.61 15.06a.63.63 0 0 0 1.202 0l2.069-6.427h2.487a.633.633 0 0 0 0-1.268h-2.947a.632.632 0 0 0-.6.44l-1.61 4.999L6.39.939z"/>
</svg>
